X:105
T:T065- The King's Head
S:Thompson's Compleat Collection of 120 Fav. Hornpipes, c 1775
Q:1/4=120
L:1/4
M:3/2
K:A
A,CEDCA,|FB2AG2|A/c/B/d/ c/e/d/f/ ea|e/c/B/A/EGA2::\
a/e/c/e/ A/c/B/A/BE|b/f/d/f/ d/f/b/f/ ge|\
a/e/c/e/ A/c/B/A/BG|c/e/a/c/ A/a/g/b/a2::\
A/G/A/E/ F/^G/F/E/ DF|B/A/B/F/ G/A/G/F/ EG|\
c/B/c/G/ A/B/A/G/Ff|e/c/d/B/ c/A/B/G/ A2::\
e/f/e/d/caBg|c/d/c/B/ AcBE|F/^G/F/E/DFD^G|\
ACDEA,2:|]

